tools/download-figma-icons/icons/outlined-large/package.svg

<svg width="64" height="64" viewBox="0 0 64 64" fill="none" xmlns="http://www.w3.org/2000/svg">
<path fill-rule="evenodd" clip-rule="evenodd" d="M33.5002 32.927V60.0728L61 46.3229V19.1771L33.5002 32.927ZM11.0204 23.1871L3.00047 19.1771V46.3229L30.5003 60.0728V32.927L21.4193 28.386V40.9469C21.4193 41.4669 21.1493 41.9499 20.7073 42.2229C20.4673 42.3719 20.1933 42.4469 19.9193 42.4469C19.6893 42.4469 19.4603 42.3939 19.2483 42.2889L11.8504 38.589C11.3424 38.335 11.0204 37.815 11.0204 37.247V23.1871ZM39.6742 7.0132L32.0002 3.17723L4.85445 16.7501L12.5274 20.5871L39.6742 7.0132ZM43.0282 8.69118L15.8824 22.2631L19.8713 24.2591L47.0181 10.6852L43.0282 8.69118ZM18.4193 26.886L14.0204 24.6871V36.32L18.4193 38.519V26.886ZM23.2263 25.9351L32.0002 30.323L59.146 16.7501L50.3721 12.3632L23.2263 25.9351ZM63.918 16.2831C63.929 16.3141 63.939 16.3441 63.947 16.3771C63.979 16.4971 64 16.6201 64 16.7501V47.2499C64 47.8179 63.679 48.3379 63.171 48.5919L32.6712 63.8418C32.4602 63.9468 32.2292 63.9998 32.0002 63.9998C31.7702 63.9998 31.5402 63.9468 31.3292 63.8418L0.829482 48.5919C0.321486 48.3379 0.000488278 47.8179 0.000488278 47.2499V16.7501C0.000488278 16.6201 0.0214881 16.4971 0.0534879 16.3771C0.0614878 16.3441 0.0714877 16.3141 0.0824877 16.2831C0.113487 16.1881 0.152487 16.0971 0.201487 16.0121C0.208487 16.0006 0.214487 15.9891 0.220487 15.9776C0.226487 15.9661 0.232487 15.9546 0.239486 15.9431C0.305486 15.8411 0.381485 15.7491 0.469485 15.6661C0.481747 15.6532 0.496093 15.642 0.51037 15.6308C0.518214 15.6246 0.526038 15.6185 0.533484 15.6121C0.610484 15.5471 0.692483 15.4901 0.781482 15.4411C0.789355 15.4365 0.796584 15.431 0.803766 15.4256C0.812092 15.4192 0.820355 15.413 0.829482 15.4081L31.3292 0.158249C31.7512 -0.0527496 32.2492 -0.0527496 32.6712 0.158249L50.7811 9.21418C51.0021 9.26818 51.2101 9.36718 51.3861 9.51518L63.171 15.4081C63.1796 15.4127 63.1872 15.4185 63.195 15.4245C63.2025 15.4303 63.2101 15.4362 63.219 15.4411C63.308 15.4901 63.39 15.5471 63.467 15.6111C63.476 15.6193 63.4856 15.6269 63.4951 15.6345C63.5078 15.6446 63.5206 15.6547 63.532 15.6661C63.619 15.7491 63.695 15.8421 63.761 15.9431C63.768 15.9546 63.774 15.9661 63.78 15.9776C63.786 15.9891 63.792 16.0006 63.799 16.0121C63.848 16.0971 63.887 16.1881 63.918 16.2831ZM47.6511 45.8971L55.0001 42.2331V35.2622L47.6511 38.9272V45.8971ZM55.8301 31.4962C56.2971 31.2652 56.8471 31.2892 57.2891 31.5632C57.7311 31.8372 58 32.3192 58 32.8382V43.1611C58 43.7291 57.679 44.2501 57.1691 44.5041L46.8201 49.6641C46.6091 49.7681 46.3801 49.8211 46.1511 49.8211C45.8771 49.8211 45.6041 49.7461 45.3621 49.5961C44.9201 49.3231 44.6511 48.8401 44.6511 48.3211V38.0002C44.6511 37.4312 44.9731 36.9112 45.4811 36.6572L55.8301 31.4962Z" fill="black"/>
</svg>

<svg xmlns="http://www.w3.org/2000/svg" width="64" height="64" fill="none" viewBox="0 0 64 64"><path fill="currentColor" fill-rule="evenodd" d="M33.5 32.927v27.146L61 46.323V19.177zm-22.48-9.74L3 19.177v27.146l27.5 13.75V32.927l-9.08-4.541v12.56a1.5 1.5 0 0 1-2.172 1.343l-7.398-3.7a1.5 1.5 0 0 1-.83-1.342zM39.674 7.013 32 3.177 4.854 16.75l7.673 3.837zm3.354 1.678L15.882 22.263l3.99 1.996 27.146-13.574zM18.42 26.886l-4.399-2.199V36.32l4.4 2.199zm4.807-.95L32 30.322 59.146 16.75l-8.774-4.387zm40.692-9.653a1.4 1.4 0 0 1 .082.467v30.5a1.5 1.5 0 0 1-.829 1.342l-30.5 15.25a1.51 1.51 0 0 1-1.342 0L.83 48.592A1.5 1.5 0 0 1 0 47.25v-30.5a1.4 1.4 0 0 1 .082-.467 1.4 1.4 0 0 1 .138-.305l.02-.035q.097-.153.23-.277.019-.019.04-.035l.023-.019q.116-.098.248-.17l.023-.016.025-.018L31.33.158c.422-.21.92-.21 1.342 0l18.11 9.056c.221.054.43.153.605.301l11.785 5.893q.013.007.024.017l.024.016q.133.075.248.17l.028.023q.02.014.037.032.13.125.229.277l.019.035.019.034q.073.128.119.271M47.651 45.897l7.35-3.664v-6.97l-7.35 3.664zm8.18-14.4A1.5 1.5 0 0 1 58 32.837V43.16a1.5 1.5 0 0 1-.83 1.343l-10.35 5.16a1.5 1.5 0 0 1-1.458-.068 1.5 1.5 0 0 1-.71-1.275V38c0-.57.321-1.09.83-1.344z" clip-rule="evenodd"/></svg>
